Yaru++/apps/16/gnome-nettool.svg

<svg height="16" width="16" xmlns="http://www.w3.org/2000/svg">
  <path d="m7.753175.5002433c-3.9876553.084375-7.16875031 3.2655375-7.253175 7.4051067h1.5945112c.0427219-3.1901255 2.6204504-5.7678661 5.6586638-5.8105973zm.3417178 0v1.5985031c1.5950625.060844 2.8785942.6869438 3.8780142 1.6705688l1.166842-1.1829938c-1.312965-1.2587344-2.994062-2.0450625-5.0448562-2.0860781zm-.3417178 1.9138312c-2.8483256.0426563-5.2966969 2.4910407-5.3393456 5.4912755h1.5986784c.0820688-2.0507906 1.8417844-3.810488 3.7406672-3.8926036zm.3417178.00375v1.5946782c1.1013535.038813 1.9030594.4324218 2.5783402 1.0562437l1.057798-1.0739531c-.941468-.9257813-2.2309635-1.5163969-3.6361382-1.5769688zm-.3417178 1.914c-1.7469722.0816563-3.3396591 1.6744036-3.4213481 3.5732817h3.4213481zm.3417178 0v3.282788l2.3203142-2.3203125c-.6172882-.566213-1.3708714-.924113-2.3203142-.9624755zm-7.5948928 3.9150005c.08442187 3.987656 3.2654813 7.168678 7.253175 7.253175v-1.754259c-3.0382134-.042-5.52936-2.460703-5.6544966-5.498916zm1.9179966 0c.1247943 2.848322 2.4868528 5.137669 5.3351784 5.179603v-1.438931c-1.8988828-.082125-3.6585975-1.841784-3.7406672-3.740672zm1.9138303 0c.081684 1.746975 1.6743759 3.339656 3.4213481 3.42135v-3.42135zm3.7630659 0v3.42135c1.8988838-.081656 3.4915902-1.674375 3.5732812-3.42135zm3.8925992 0c-.08214 1.898888-1.841804 3.658519-3.8925992 3.740672v1.434937c2.8483262-.122521 5.2049842-2.47919 5.3275382-5.175609zm1.754258 0c-.123048 2.848322-2.64662 5.371913-5.6468572 5.494922v1.758253c4.1395672-.084469 7.3205692-3.265481 7.4051072-7.253175z" fill="#808080" stroke-width="1.04312"/>
</svg>

<?xml version="1.0" encoding="UTF-8" standalone="no"?>
<svg
   xmlns:dc="http://purl.org/dc/elements/1.1/"
   xmlns:cc="http://creativecommons.org/ns#"
   xmlns:rdf="http://www.w3.org/1999/02/22-rdf-syntax-ns#"
   xmlns:svg="http://www.w3.org/2000/svg"
   xmlns="http://www.w3.org/2000/svg"
   xmlns:sodipodi="http://sodipodi.sourceforge.net/DTD/sodipodi-0.dtd"
   xmlns:inkscape="http://www.inkscape.org/namespaces/inkscape"
   width="16"
   height="16"
   version="1.1"
   id="svg12"
   sodipodi:docname="gnome-nettool-symbolic.svg"
   inkscape:version="0.92.4 (5da689c313, 2019-01-14)">
  <metadata
     id="metadata18">
    <rdf:RDF>
      <cc:Work
         rdf:about="">
        <dc:format>image/svg+xml</dc:format>
        <dc:type
           rdf:resource="http://purl.org/dc/dcmitype/StillImage" />
        <dc:title />
      </cc:Work>
    </rdf:RDF>
  </metadata>
  <defs
     id="defs16" />
  <sodipodi:namedview
     pagecolor="#ffffff"
     bordercolor="#666666"
     borderopacity="1"
     objecttolerance="10"
     gridtolerance="10"
     guidetolerance="10"
     inkscape:pageopacity="0"
     inkscape:pageshadow="2"
     inkscape:window-width="1920"
     inkscape:window-height="1016"
     id="namedview14"
     showgrid="false"
     inkscape:zoom="14.75"
     inkscape:cx="-17.762712"
     inkscape:cy="8"
     inkscape:window-x="0"
     inkscape:window-y="27"
     inkscape:window-maximized="1"
     inkscape:current-layer="svg12" />
  <path
     style="fill:#808080;fill-opacity:1;stroke-width:1.04311991"
     d="M 7.753175,0.5002433 C 3.7655197,0.5846183 0.58442469,3.7657808 0.5,7.90535 H 2.0945112 C 2.1372331,4.7152245 4.7149616,2.1374839 7.753175,2.0947527 Z m 0.3417178,0 v 1.5985031 c 1.5950625,0.060844 2.8785942,0.6869438 3.8780142,1.6705688 L 13.139749,2.5863214 C 11.826784,1.327587 10.145687,0.5412589 8.0948928,0.5002433 Z M 7.753175,2.4140745 C 4.9048494,2.4567308 2.4564781,4.9051152 2.4138294,7.90535 H 4.0125078 C 4.0945766,5.8545594 5.8542922,4.094862 7.753175,4.0127464 Z m 0.3417178,0.00375 v 1.5946782 c 1.1013535,0.038813 1.9030594,0.4324218 2.5783402,1.0562437 L 11.731031,3.9947933 C 10.789563,3.069012 9.5000675,2.4783964 8.0948928,2.4178245 Z m -0.3417178,1.914 C 6.0062028,4.4134808 4.4135159,6.0062281 4.3318269,7.9051062 H 7.753175 Z m 0.3417178,0 v 3.282788 L 10.415207,5.2943 C 9.7979188,4.728087 9.0443356,4.370187 8.0948928,4.3318245 Z M 0.5,8.246825 C 0.58442187,12.234481 3.7654813,15.415503 7.753175,15.5 v -1.754259 c -3.0382134,-0.042 -5.52936,-2.460703 -5.6544966,-5.498916 z m 1.9179966,0 c 0.1247943,2.848322 2.4868528,5.137669 5.3351784,5.179603 V 11.987497 C 5.8542922,11.905372 4.0945775,10.145713 4.0125078,8.246825 Z m 1.9138303,0 c 0.081684,1.746975 1.6743759,3.339656 3.4213481,3.42135 v -3.42135 z m 3.7630659,0 v 3.42135 C 9.9937766,11.586519 11.586483,9.9938 11.668174,8.246825 Z m 3.8925992,0 c -0.08214,1.898888 -1.841804,3.658519 -3.8925992,3.740672 v 1.434937 c 2.8483262,-0.122521 5.2049842,-2.47919 5.3275382,-5.175609 z m 1.754258,0 c -0.123048,2.848322 -2.64662,5.371913 -5.6468572,5.494922 V 15.5 C 12.23446,15.415531 15.415462,12.234519 15.5,8.246825 Z"
     id="path908"
     inkscape:connector-curvature="0"
     sodipodi:nodetypes="cccccccccccccccccccccccccccccccccccccccccccccccccccccscccs" />
</svg>
